resources/svg/insert-link.svg

<svg xmlns="http://www.w3.org/2000/svg" fill="none" viewBox="0 0 14 14"><path fill="currentColor" fill-rule="evenodd" d="M6.04944 2.66368C5.37814 3.60912 5.48689 4.90094 6.3068 5.72084L6.76265 6.1767L6.17661 6.76274L5.72078 6.30692C4.90088 5.48701 3.60906 5.37826 2.66362 6.04956L2.3823 6.2493C1.71215 6.72514 1.12505 7.30822 0.64464 7.9751C-0.148667 9.0763 -0.0264422 10.5903 0.933243 11.55L2.45006 13.0668C3.40975 14.0265 4.92372 14.1487 6.02493 13.3554C6.6918 12.875 7.27489 12.2879 7.75072 11.6177L7.97012 11.3087C8.63006 10.3793 8.52315 9.10929 7.71711 8.30324L7.23727 7.8234L7.82331 7.23736L8.30312 7.71717C9.10917 8.52321 10.3791 8.63012 11.3086 7.97018L11.6176 7.75078C12.2877 7.27495 12.8748 6.69186 13.3553 6.02499C14.1486 4.92378 14.0263 3.40981 13.0667 2.45012L11.5498 0.933304C10.5902 -0.0263812 9.07618 -0.148606 7.97497 0.644701C7.3081 1.12512 6.72501 1.71221 6.24918 2.38236L6.04944 2.66368ZM8.88397 6.1767L9.36378 6.65651C9.65246 6.94519 10.1073 6.98348 10.4402 6.74712L10.7492 6.52773C11.2849 6.14737 11.7542 5.68128 12.1382 5.14821C12.5016 4.64381 12.4456 3.95036 12.006 3.51078L10.4892 1.99396C10.0496 1.55439 9.35615 1.49841 8.85175 1.86177C8.31868 2.24579 7.85259 2.71509 7.47224 3.25078L7.27249 3.53209C7.02478 3.88096 7.06491 4.35764 7.36746 4.66018L7.82331 5.11604L8.3314 4.60796C8.62429 4.31506 9.09916 4.31506 9.39206 4.60796C9.68495 4.90085 9.68495 5.37572 9.39206 5.66862L8.88397 6.1767ZM5.11595 7.8234L4.61687 8.32249C4.32397 8.61538 4.32397 9.09025 4.61687 9.38315C4.90976 9.67604 5.38463 9.67604 5.67753 9.38315L6.17661 8.88406L6.65645 9.3639C6.94513 9.65259 6.98342 10.1074 6.74706 10.4403L6.52767 10.7493C6.14731 11.285 5.68122 11.7543 5.14815 12.1383C4.64375 12.5017 3.9503 12.4457 3.51072 12.0061L1.9939 10.4893C1.55433 10.0497 1.49835 9.35627 1.86171 8.85187C2.24573 8.3188 2.71503 7.85271 3.25072 7.47236L3.53203 7.27261C3.8809 7.02491 4.35758 7.06503 4.66012 7.36758L5.11595 7.8234Z" clip-rule="evenodd"></path></svg>

<svg xmlns="http://www.w3.org/2000/svg" fill="none" viewBox="0 0 14 14"><path fill="currentColor" fill-rule="evenodd" d="M6.05 2.664a2.377 2.377 0 0 0 .257 3.057l.456.456-.586.586-.456-.456a2.377 2.377 0 0 0-3.057-.257l-.282.2A7.476 7.476 0 0 0 .645 7.974a2.768 2.768 0 0 0 .288 3.575l1.517 1.517a2.768 2.768 0 0 0 3.575.288 7.475 7.475 0 0 0 1.726-1.737l.22-.31a2.336 2.336 0 0 0-.254-3.005l-.48-.48.586-.586.48.48a2.337 2.337 0 0 0 3.006.253l.309-.22a7.479 7.479 0 0 0 1.737-1.725 2.768 2.768 0 0 0-.288-3.575L11.55.933A2.768 2.768 0 0 0 7.975.645a7.476 7.476 0 0 0-1.726 1.737l-.2.282Zm2.834 3.513.48.48a.837.837 0 0 0 1.076.09l.31-.22a5.975 5.975 0 0 0 1.388-1.379 1.268 1.268 0 0 0-.132-1.637l-1.517-1.517a1.268 1.268 0 0 0-1.637-.132c-.533.384-1 .853-1.38 1.389l-.2.281a.877.877 0 0 0 .095 1.128l.456.456.508-.508a.75.75 0 1 1 1.061 1.06l-.508.509ZM5.116 7.823l-.5.5a.75.75 0 1 0 1.062 1.06l.499-.499.48.48a.837.837 0 0 1 .09 1.076l-.22.31a5.975 5.975 0 0 1-1.379 1.388 1.268 1.268 0 0 1-1.637-.132L1.994 10.49a1.268 1.268 0 0 1-.132-1.637c.384-.533.853-1 1.389-1.38l.281-.2a.877.877 0 0 1 1.128.096l.456.455Z" clip-rule="evenodd"/></svg>
